X: 77
T:Old Madera Waltz
M:3/4
L:1/8
C:Jay Unger and Molly Mason
R:waltz
K:F
d4 de| (3fed d4 | d3 g (3d^c=c | BA  GF DF |
GA Bc de | (3fgf eg dc | B2 A2 (3BAG |1G6 :|2G4 (3DE^F|
K:G
GA B2 (3AGE | GA B2 (3AGE | GA Bd AG | EC3 (3DEF |
GA B2 (3AGE | GA Bc dc | d3c (3_BAG |1G4 (3DEF:|2 G6||
